!!!OTL-incipit: AUF DIESER WELT HAB ICH KEIN FREUD
!!!ARE: Europa, Mitteleuropa, Deutschland
!!!SCT: Z0250
!!!TXL: @@DE
!!!YEM: Copyright 1995, estate of Helmut Schaffrath.
**kern	**text
*ICvox	*
*M3/4	*
*k[f#c#g#]	*
*A:	*
{8e	Auf
=1	=1
8a	die-
16g#L	-ſer
16f#J	.
4e	Welt
4f#	hab
=2	=2
8e	ich
16eL	kein'
16dJ	.
8c#}	Freud,
{8e	ich
8a	hatt'
8cc#	ein
=3	=3
4cc#	Schaʒ-
8cc#	-ʒerl
8ee	und
8b	das
8cc#	iſt
=4	=4
4.a}	weit,
{8a	es
8g#	iſt
8g#	ſo
=5	=5
(4f#	weit
8B)	.
8b/	im
8a#	frem-
8b/	-den
=6	=6
(4g#	Land,
8e)}	.
{8e	daß
8a	ich
8b/	ihn
=7	=7
4.cc#	nim-
8ee	-mer
8b	ſchauen
8cc#	.
=8	=8
4a	kann.
4r	.
8r}	.
==	==
!!!AGN: Soldaten -, Abschieds - Lied
!!!ONB: ESAC (Essen Associative Code) Database: ZUCCAL
!!!AMT: simple triple
!!!AIN: vox
!!!EED: Helmut Schaffrath
!!!EEV: 1.0
!!!GTL: III. Soldaten-, Jaeger-, Schiffer-, Fuhrmanns- und Handwerks-Lieder.
!!!URL-scan: https://www.digitale-sammlungen.de/de/view/bsb11160571?page=461
!!!ENC: Anna Maria Matuszewska
!!!EEV: 2025/01/29
*-	*-
